public/icons/tokens/jeur.svg

<svg width="256" height="256" viewBox="0 0 256 256" fill="none" xmlns="http://www.w3.org/2000/svg">
<g clip-path="url(#clip0_1819_1910)">
<path d="M128 251.897C196.427 251.897 251.897 196.427 251.897 128C251.897 59.5733 196.427 4.1026 128 4.1026C59.5733 4.1026 4.10254 59.5733 4.10254 128C4.10254 196.427 59.5733 251.897 128 251.897Z" fill="#FFCC00"/>
<path d="M128 10.6667C101.003 10.7191 74.8575 20.124 54.0131 37.2811C33.1687 54.4383 18.9128 78.2877 13.6712 104.771C8.42964 131.255 12.5261 158.737 25.2637 182.54C38.0012 206.344 58.5928 224.999 83.5349 235.331C108.477 245.663 136.228 247.034 162.067 239.211C187.906 231.387 210.236 214.852 225.258 192.42C240.28 169.988 247.065 143.044 244.459 116.172C241.853 89.3011 230.017 64.1627 210.965 45.0347C188.962 23.0302 159.118 10.6677 128 10.6667ZM128 0C153.316 0 178.063 7.50707 199.113 21.5719C220.162 35.6367 236.569 55.6276 246.257 79.0165C255.945 102.405 258.479 128.142 253.54 152.972C248.602 177.801 236.411 200.609 218.51 218.51C200.609 236.411 177.801 248.602 152.972 253.54C128.142 258.479 102.405 255.945 79.0165 246.257C55.6276 236.569 35.6367 220.162 21.5719 199.113C7.50707 178.063 0 153.316 0 128C0 94.0523 13.4857 61.495 37.4903 37.4903C61.495 13.4857 94.0523 0 128 0V0Z" fill="#003399"/>
<path d="M234.667 128C234.667 149.097 228.411 169.72 216.69 187.261C204.97 204.802 188.311 218.474 168.82 226.547C149.329 234.621 127.882 236.733 107.191 232.617C86.4993 228.501 67.4931 218.342 52.5755 203.425C37.6579 188.507 27.4989 169.501 23.3831 148.81C19.2674 128.118 21.3797 106.671 29.4531 87.1805C37.5264 67.6897 51.1981 51.0306 68.7394 39.3099C86.2806 27.5892 106.904 21.3333 128 21.3333C142.013 21.3145 155.892 24.0607 168.842 29.4146C181.792 34.7684 193.558 42.6247 203.467 52.5334C213.376 62.442 221.232 74.2083 226.586 87.1582C231.939 100.108 234.686 113.987 234.667 128Z" fill="#003399"/>
<path d="M128 44.3734L130.56 52.0534H138.24L132.267 57.1734L134.827 64L128 59.7334L121.174 64L123.734 57.1734L117.76 52.0534H125.44L128 44.3734Z" fill="#FFCC00"/>
<path d="M90.4537 54.6133L93.0137 62.2933H100.694L93.867 66.56L96.427 74.24L90.4537 69.9733L83.627 74.24L86.187 66.56L79.3604 62.2933H87.8937L90.4537 54.6133Z" fill="#FFCC00"/>
<path d="M62.2937 81.92L64.8537 89.6H73.387L66.5604 93.8667L69.1204 101.547L62.2937 96.4267L56.3204 101.547L58.8804 93.8667L52.0537 89.6H59.7337L62.2937 81.92Z" fill="#FFCC00"/>
<path d="M165.547 54.6133L168.107 62.2933H176.64L169.814 66.56L172.374 74.24L165.547 69.9733L159.574 74.24L162.134 66.56L155.307 62.2933H162.987L165.547 54.6133Z" fill="#FFCC00"/>
<path d="M203.094 88.7467L196.267 93.0134L198.827 100.693L192 96.4267L186.027 100.693L188.587 93.0134L181.76 88.7467H189.44L192 81.0667L194.56 88.7467H203.094Z" fill="#FFCC00"/>
<path d="M213.334 126.293L206.507 130.56L209.067 138.24L203.094 133.12L196.267 138.24L198.827 130.56L192 126.293H200.534L203.094 118.613L204.8 126.293H213.334Z" fill="#FFCC00"/>
<path d="M199.68 174.08L192.854 168.96L186.027 174.08L188.587 166.4L182.614 162.133H190.294L192.854 154.453L195.414 162.133H203.947L197.12 166.4L199.68 174.08Z" fill="#FFCC00"/>
<path d="M122.027 211.627L124.587 203.947L117.76 198.827H126.294L128.854 191.147L131.414 198.827H139.094L133.12 203.947L134.827 211.627L128.854 206.507L122.027 211.627Z" fill="#FFCC00"/>
<path d="M84.4803 201.387L87.0403 193.707L80.2136 189.44H87.8936L90.4536 181.76L93.0136 189.44H101.547L94.7203 193.707L97.2803 201.387L90.4536 197.12L84.4803 201.387Z" fill="#FFCC00"/>
<path d="M171.52 201.387L165.547 196.267L158.72 201.387L161.28 193.707L154.454 189.44H162.987L165.547 181.76L168.107 189.44H175.787L168.96 193.707L171.52 201.387Z" fill="#FFCC00"/>
<path d="M42.667 126.293H51.2003L52.907 118.613L55.467 126.293H64.0003L57.1737 130.56L59.7337 138.24L52.907 133.973L46.9337 138.24L49.4937 130.56L42.667 126.293Z" fill="#FFCC00"/>
<path d="M56.3204 174.08L58.8804 166.4L52.0537 162.133H60.587L63.147 154.453L65.707 162.133H73.387L67.4137 166.4L69.9737 174.08L63.147 168.96L56.3204 174.08Z" fill="#FFCC00"/>
</g>
<defs>
<clipPath id="clip0_1819_1910">
<rect width="256" height="256" fill="white"/>
</clipPath>
</defs>
</svg>

<svg width="256" height="256" viewBox="0 0 256 256" fill="none" xmlns="http://www.w3.org/2000/svg"><g clip-path="url(#a)"><path d="M128 251.897c68.427 0 123.897-55.47 123.897-123.897S196.427 4.103 128 4.103 4.103 59.573 4.103 128 59.573 251.897 128 251.897Z" fill="#FC0"/><path d="M128 10.667a116.778 116.778 0 1 0 82.965 34.368A117.332 117.332 0 0 0 128 10.667ZM128 0a128.001 128.001 0 0 1 90.51 218.51A128 128 0 1 1 128 0Z" fill="#039"/><path d="M234.667 128a106.664 106.664 0 0 1-65.847 98.547A106.672 106.672 0 0 1 23.383 148.81 106.667 106.667 0 0 1 128 21.333 106.524 106.524 0 0 1 234.667 128Z" fill="#039"/><path d="m128 44.373 2.56 7.68h7.68l-5.973 5.12 2.56 6.827L128 59.733 121.174 64l2.56-6.827-5.974-5.12h7.68l2.56-7.68Zm-37.546 10.24 2.56 7.68h7.68l-6.827 4.267 2.56 7.68-5.973-4.267-6.827 4.267 2.56-7.68-6.827-4.267h8.534l2.56-7.68ZM62.294 81.92l2.56 7.68h8.533l-6.827 4.267 2.56 7.68-6.826-5.12-5.974 5.12 2.56-7.68-6.826-4.267h7.68l2.56-7.68Zm103.253-27.307 2.56 7.68h8.533l-6.826 4.267 2.56 7.68-6.827-4.267-5.973 4.267 2.56-7.68-6.827-4.267h7.68l2.56-7.68Zm37.547 34.134-6.827 4.266 2.56 7.68L192 96.427l-5.973 4.266 2.56-7.68-6.827-4.266h7.68l2.56-7.68 2.56 7.68h8.534Zm10.24 37.546-6.827 4.267 2.56 7.68-5.973-5.12-6.827 5.12 2.56-7.68-6.827-4.267h8.534l2.56-7.68 1.706 7.68h8.534ZM199.68 174.08l-6.826-5.12-6.827 5.12 2.56-7.68-5.973-4.267h7.68l2.56-7.68 2.56 7.68h8.533l-6.827 4.267 2.56 7.68Zm-77.653 37.547 2.56-7.68-6.827-5.12h8.534l2.56-7.68 2.56 7.68h7.68l-5.974 5.12 1.707 7.68-5.973-5.12-6.827 5.12Zm-37.547-10.24 2.56-7.68-6.826-4.267h7.68l2.56-7.68 2.56 7.68h8.533l-6.827 4.267 2.56 7.68-6.826-4.267-5.974 4.267Zm87.04 0-5.973-5.12-6.827 5.12 2.56-7.68-6.826-4.267h8.533l2.56-7.68 2.56 7.68h7.68l-6.827 4.267 2.56 7.68ZM42.667 126.293H51.2l1.707-7.68 2.56 7.68H64l-6.826 4.267 2.56 7.68-6.827-4.267-5.973 4.267 2.56-7.68-6.827-4.267ZM56.32 174.08l2.56-7.68-6.826-4.267h8.533l2.56-7.68 2.56 7.68h7.68l-5.973 4.267 2.56 7.68-6.827-5.12-6.827 5.12Z" fill="#FC0"/></g><defs><clipPath id="a"><path fill="#fff" d="M0 0h256v256H0z"/></clipPath></defs></svg>
